X:160(G)
T:French Dance (transposed to G)
O:No160 William Clarke of Feltwell
M:6/8
L:1/8
N:See notes for160(C)
K:G
:{E}D|G2G {A}GFG|A2Ad2c|B2B BcB|AAA A2D|G2G{A} GFG|A2Ad2c|B2B {B}AF>A|GGG G2:|
|:G|e3d^cd|B3Bcd|c3ABc|Bd/c/B/A/G2G|e3d^cd|B3Bcd|c3ABA|{BA}G3G2:|
|:B|BcBB2e|g3e2g|fgff2e|{e}d^cdB2B|a2af2f|{a}gfge2g|f2f B^c^d|e2ge2:|

